components/icon/svg/24/navigation_list.svg

<?xml version="1.0" encoding="UTF-8"?>
<svg width="24px" height="24px" viewBox="0 0 24 24" version="1.1" xmlns="http://www.w3.org/2000/svg" xmlns:xlink="http://www.w3.org/1999/xlink">
    <!-- Generator: Sketch 64 (93537) - https://sketch.com -->
    <title>ic-db_navigation_list_24</title>
    <desc>Created with Sketch.</desc>
    <g id="Symbols:Icon" stroke="none" stroke-width="1" fill="none" fill-rule="evenodd">
        <g id="24dp-Icon/Navigation/List" fill="#282D37">
            <path d="M11.0065159,17 L17.9934841,17 C18.5454863,17 19,16.5738613 19,15.9836759 C19,15.4590891 18.5454863,15 17.9934841,15 L11.0065159,15 C10.4545137,15 10,15.4590891 10,15.9836759 C10,16.5738613 10.4545137,17 11.0065159,17 Z M6.00003305,17 L7.00006609,17 C7.5806345,17 8,16.5738613 8,15.9836759 C8,15.4590891 7.5806345,15 7.00006609,15 L6.00003305,15 C5.45158625,15 5,15.4590891 5,15.9836759 C5,16.5738613 5.45158625,17 6.00003305,17 Z M11.0065159,13.0021 L17.9934841,13.0021 C18.5454863,13.0021 19,12.5504295 19,12.0021 C19,11.4537705 18.5454863,11.0021 17.9934841,11.0021 L11.0065159,11.0021 C10.4545137,11.0021 10,11.4537705 10,12.0021 C10,12.5504295 10.4545137,13.0021 11.0065159,13.0021 Z M6.00003305,13.0021 L7.00006609,13.0021 C7.5806345,13.0021 8,12.5504295 8,12.0021 C8,11.4537705 7.5806345,11.0021 7.00006609,11.0021 L6.00003305,11.0021 C5.45158625,11.0021 5,11.4537705 5,12.0021 C5,12.5504295 5.45158625,13.0021 6.00003305,13.0021 Z M11.0065159,9 L17.9934841,9 C18.5454863,9 19,8.57376058 19,8.01632406 C19,7.45898831 18.5454863,7 17.9934841,7 L11.0065159,7 C10.4545137,7 10,7.45898831 10,8.01632406 C10,8.57376058 10.4545137,9 11.0065159,9 Z M6.00003305,9 L7.00006609,9 C7.5806345,9 8,8.57376058 8,8.01632406 C8,7.45898831 7.5806345,7 7.00006609,7 L6.00003305,7 C5.45158625,7 5,7.45898831 5,8.01632406 C5,8.57376058 5.45158625,9 6.00003305,9 Z" id="🎨-Color"></path>
        </g>
    </g>
</svg>

<svg width="24" height="24" xmlns="http://www.w3.org/2000/svg"><path d="M11.007 17h7.986A.996.996 0 0020 15.984c0-.525-.455-.984-1.007-.984h-7.986c-.552 0-1.007.46-1.007.984A.996.996 0 0011.007 17zM6 17h1c.58 0 1-.426 1-1.016A.986.986 0 007 15H6c-.548 0-1 .46-1 .984A.993.993 0 006 17zm5.007-3.998h7.986c.552 0 1.007-.452 1.007-1s-.455-1-1.007-1h-7.986c-.552 0-1.007.452-1.007 1s.455 1 1.007 1zm-5.007 0h1c.58 0 1-.452 1-1s-.42-1-1-1H6c-.548 0-1 .452-1 1s.452 1 1 1zM11.007 9h7.986A.989.989 0 0020 8.016C20 7.46 19.545 7 18.993 7h-7.986C10.455 7 10 7.459 10 8.016c0 .558.455.984 1.007.984zM6 9h1c.58 0 1-.426 1-.984C8 7.46 7.58 7 7 7H6c-.548 0-1 .459-1 1.016C5 8.574 5.452 9 6 9z" fill="#282D37" fill-rule="evenodd"/></svg>
